src/pos-icons/file-remove-outline.svg

<svg height="24" viewBox="0 0 24 24" width="24" xmlns="http://www.w3.org/2000/svg"><path d="m14 2h-8c-1.11 0-2 .9-2 2v16c0 1.11.89 2 2 2h12c1.11 0 2-.89 2-2v-12zm4 18h-12v-16h7v5h5zm-6.05-4.54 2.13 2.12-1.42 1.42-2.12-2.13-2.12 2.13-1.42-1.42 2.13-2.12-2.13-2.12 1.42-1.42 2.12 2.13 2.12-2.13 1.42 1.42z"/></svg>

<?xml version="1.0" encoding="UTF-8"?><!DOCTYPE svg PUBLIC "-//W3C//DTD SVG 1.1//EN" "http://www.w3.org/Graphics/SVG/1.1/DTD/svg11.dtd"><svg xmlns="http://www.w3.org/2000/svg" xmlns:xlink="http://www.w3.org/1999/xlink" version="1.1" id="mdi-file-remove-outline" width="24" height="24" viewBox="0 0 24 24"><path d="M14 2H6C4.89 2 4 2.9 4 4V20C4 21.11 4.89 22 6 22H18C19.11 22 20 21.11 20 20V8L14 2M18 20H6V4H13V9H18V20M11.95 15.46L14.08 17.58L12.66 19L10.54 16.87L8.42 19L7 17.58L9.13 15.46L7 13.34L8.42 11.92L10.54 14.05L12.66 11.92L14.08 13.34L11.95 15.46Z" /></svg>
